X:1
T:Wabash Cannonball
M:4/4
L:1/4
K:G
 D/2D/2| D D G3/2 A/2| B d2 d/2d/2| B B A G| C3 E/2E/2| D D F A| B A2 G/2G/2|\
 F G F E| D3D/2-D/2| D D G3/2 A/2| B d2 c/2c/2| B B A G| C3 E/2E/2|\
 D F A3/2 A/2| B A A3/2 G/2| F D E F| G3||
